X: 43454
T: Ye Banks And Braes O' Bonnie Doon
R: jig
M: 6/8
K: Gmajor
D|:G2 G AGA|BdB AGA|BAG GED|DEG A2 D|
G2 G AGA|BdB AGA|BAG GED|1 DEF G2 D:|2 DEF G2 B||
|:d2 e dBG|d2 e dBG|dBG dBG|edB A2 d|
G2 G AGA|BdB AGA|BAG GED|1 DEF G2 B:|2 DEF G2||

